brandFactory_export/2.Regular/Documento_Archivo PSD_2Regular.svg

<?xml version="1.0" encoding="UTF-8"?>
<svg width="24px" height="24px" viewBox="0 0 24 24" version="1.1" xmlns="http://www.w3.org/2000/svg" xmlns:xlink="http://www.w3.org/1999/xlink">
    <title>2.Regular/Documento_Archivo PSD_2Regular</title>
    <g id="Symbols" stroke="none" stroke-width="1" fill="none" fill-rule="evenodd">
        <g id="2.Regular/Documento_Archivo-PSD_2Regular" fill="#5CB615" fill-rule="nonzero">
            <path d="M16.2117647,0.0302521008 C16.4907563,0.0302521008 16.7529412,0.134453782 16.9478992,0.329411765 L23.3042017,6.48067227 C23.4386555,6.61512605 23.5159664,6.77647059 23.5663866,6.94453782 C23.6033613,7.03193277 23.6235294,7.12941176 23.6235294,7.2302521 L23.6235294,21.9966387 C23.6235294,22.897479 22.8504202,23.6571429 21.9327731,23.6571429 L7.31428571,23.6571429 C6.41344538,23.6571429 5.62352941,22.8806723 5.62352941,21.9966387 L5.66386555,18.6689076 L2.90420168,18.6689076 C1.30420168,18.6689076 2.19149143e-10,17.3613445 2.19149143e-10,15.7579832 L2.19149143e-10,10.8436975 C2.19149143e-10,9.24033613 1.30420168,7.93277311 2.90420168,7.93277311 L5.62352941,7.93277311 L5.62352941,1.6907563 C5.62352941,0.820168067 6.4302521,0.0302521008 7.31428571,0.0302521008 L16.2117647,0.0302521008 Z M15.1529412,1.49243697 L7.31092437,1.49243697 C7.22352941,1.49243697 7.08571429,1.62352941 7.0789916,1.69411765 L7.0789916,7.93613445 L14.7159664,7.93613445 C16.3193277,7.93613445 17.6201681,9.24369748 17.6201681,10.8470588 L17.6201681,15.7613445 C17.6201681,17.3647059 16.3159664,18.6722689 14.7159664,18.6722689 L7.11932773,18.6722689 L7.0789916,22.0067227 C7.0789916,22.0672269 7.2,22.1983193 7.31092437,22.1983193 L21.9327731,22.1983193 C22.0504202,22.1983193 22.1647059,22.0840336 22.1647059,21.9966387 L22.1647059,8.27563025 L19.3882353,8.27563025 C18.1714286,8.27563025 17.1193277,7.8789916 16.3462185,7.13277311 C15.5663866,6.37647059 15.1529412,5.34789916 15.1529412,4.15462185 L15.1529412,1.49243697 Z M14.7193277,9.39495798 L2.90420168,9.39495798 C2.10420168,9.39495798 1.45546219,10.0470588 1.45546219,10.8470588 L1.45546219,15.7613445 C1.45546219,16.5613445 2.10420168,17.2134454 2.90420168,17.2134454 L14.7193277,17.2134454 C15.5193277,17.2134454 16.1680672,16.5613445 16.1680672,15.7613445 L16.1680672,10.8470588 C16.1680672,10.0470588 15.5193277,9.39495798 14.7193277,9.39495798 Z M8.62857143,11.0890756 C9.05882353,11.0890756 9.52605042,11.1529412 9.86890756,11.2705882 L9.71428571,12.0235294 C9.3512605,11.9260504 8.96134454,11.8689076 8.6487395,11.8689076 C8.10420168,11.8689076 7.92941176,12.0638655 7.92941176,12.3428571 C7.92941176,13.2134454 10.194958,12.6151261 10.194958,14.3495798 C10.194958,14.7462185 10.0571429,15.0621849 9.82521008,15.2840336 C9.51260504,15.5764706 9.09243697,15.707563 8.45378151,15.707563 C7.88907563,15.7042017 7.42857143,15.6336134 6.98151261,15.4756303 L7.13613445,14.702521 C7.52605042,14.8403361 8.03697479,14.9243697 8.36302521,14.9243697 C8.96134454,14.9243697 9.24033613,14.7697479 9.24033613,14.3596639 C9.24033613,13.5294118 6.97478992,14.1310924 6.97478992,12.3865546 C6.97478992,11.4857143 7.68403361,11.0890756 8.62857143,11.0890756 Z M4.6487395,11.1731092 C5.34453782,11.1731092 5.78487395,11.2705882 6.07058824,11.5361345 C6.3092437,11.7579832 6.42689076,12.1008403 6.42689076,12.5747899 C6.42689076,13.0487395 6.31596639,13.405042 6.09411765,13.6537815 C5.83529412,13.9462185 5.43193277,14.0840336 4.84705882,14.0840336 L4.13445378,14.0840336 L4.13445378,15.6168067 L3.12268908,15.6168067 L3.12268908,11.1731092 L4.6487395,11.1731092 Z M12.3428571,11.1731092 C13.1865546,11.1731092 13.7445378,11.3042017 14.1142857,11.6739496 C14.4705882,12.0235294 14.6521008,12.5747899 14.6521008,13.3747899 C14.6521008,14.1815126 14.4773109,14.7394958 14.1142857,15.1159664 C13.7815126,15.4521008 13.2705882,15.6168067 12.4773109,15.6168067 L10.9714286,15.6168067 L10.9714286,11.1731092 L12.3428571,11.1731092 Z M12.2991597,11.912605 L11.9865546,11.912605 L11.9865546,14.8739496 L12.4168067,14.8739496 C12.8705882,14.8739496 13.1966387,14.7361345 13.3714286,14.4773109 C13.5462185,14.2184874 13.6067227,13.9193277 13.6067227,13.3747899 C13.6067227,12.7394958 13.5092437,12.4403361 13.2941176,12.205042 C13.092437,11.989916 12.7932773,11.912605 12.2991597,11.912605 Z M4.61176471,11.9092437 L4.13445378,11.9092437 L4.13445378,13.3243697 L4.63529412,13.3243697 L4.63529412,13.3210084 C4.96134454,13.3210084 5.09579832,13.2739496 5.22689076,13.1529412 C5.34453782,13.0352941 5.40168067,12.8470588 5.40168067,12.5882353 C5.40168067,12.3495798 5.3512605,12.1714286 5.23361345,12.0638655 C5.1092437,11.9529412 4.9210084,11.9092437 4.61176471,11.9092437 Z M16.6151261,2.03697479 L16.6151261,4.15462185 C16.6151261,4.94453782 16.8739496,5.61008403 17.3613445,6.08403361 C17.8588235,6.56470588 18.5579832,6.81680672 19.3915966,6.81680672 L21.5529412,6.81680672 L16.6151261,2.03697479 Z" id="Documento_Archivo-PSD_2Regular"></path>
        </g>
    </g>
</svg>

<svg width="24" height="24" viewBox="0 0 24 24" xmlns="http://www.w3.org/2000/svg"><path d="M16.212.03c.279 0 .54.104.736.3l6.356 6.15c.135.135.212.296.262.465a.735.735 0 01.058.285v14.767c0 .9-.774 1.66-1.691 1.66H7.314c-.9 0-1.69-.776-1.69-1.66l.04-3.328h-2.76A2.913 2.913 0 010 15.758v-4.914a2.913 2.913 0 012.904-2.911h2.72V1.69c0-.87.806-1.66 1.69-1.66h8.898zm-1.06 1.462H7.312c-.087 0-.225.132-.232.202v6.242h7.637a2.91 2.91 0 012.904 2.911v4.914a2.913 2.913 0 01-2.904 2.911H7.119l-.04 3.335c0 .06.121.191.232.191h14.622c.117 0 .232-.114.232-.201V8.276h-2.777c-1.217 0-2.269-.397-3.042-1.143-.78-.757-1.193-1.785-1.193-2.978V1.492zm-.433 7.903H2.904c-.8 0-1.449.652-1.449 1.452v4.914c0 .8.65 1.452 1.45 1.452h11.814c.8 0 1.45-.652 1.45-1.452v-4.914c0-.8-.65-1.452-1.45-1.452zm-6.09 1.694c.43 0 .897.064 1.24.182l-.155.753a4.34 4.34 0 00-1.065-.155c-.545 0-.72.195-.72.474 0 .87 2.266.272 2.266 2.007 0 .396-.138.712-.37.934-.312.292-.733.424-1.371.424-.565-.004-1.025-.074-1.472-.232l.154-.773c.39.137.901.221 1.227.221.598 0 .877-.154.877-.564 0-.83-2.265-.229-2.265-1.973 0-.901.709-1.298 1.654-1.298zm-3.98.084c.696 0 1.136.098 1.422.363.238.222.356.565.356 1.039s-.111.83-.333 1.079c-.259.292-.662.43-1.247.43h-.713v1.533H3.123v-4.444h1.526zm7.694 0c.844 0 1.402.131 1.771.5.357.35.538.902.538 1.702 0 .807-.175 1.364-.538 1.741-.332.336-.843.5-1.637.5h-1.506v-4.443h1.372zm-.044.74h-.312v2.96h.43c.454 0 .78-.137.954-.396.175-.259.236-.558.236-1.102 0-.636-.098-.935-.313-1.17-.202-.215-.5-.292-.995-.292zm-7.687-.004h-.478v1.415h.501v-.003c.326 0 .46-.047.592-.168.118-.118.175-.306.175-.565 0-.238-.05-.417-.168-.524-.125-.111-.313-.155-.622-.155zm12.003-9.872v2.118c0 .79.259 1.455.746 1.929.498.48 1.197.733 2.03.733h2.162l-4.938-4.78z" fill="#5CB615" fill-rule="nonzero"/></svg>
